X: 12533
T: Farewell To Jim
R: jig
M: 6/8
K: Dmajor
ag|:"D"f2d "A"edc|"D"Add "A"cAG|"D"A2G "A"EFG|
"D"A2d "A"cde|"D"agf "A7"gfe|"D"fed "A"cAG|
"D"Add "A"cAG|1 "A"EDC "D"Dag:|2 "A"EDC "D"D2 E||
|:"D"F2G Add|"A"cAA eAA|"A"gAA fAA|
"E"efd "A"cAG|"D"Add "A"cAB|"C"=c>de ged|
"A7"cAA GEA|1 "D"D>ED D2E:|2 "D"D>ED D3||

